modules/coreui-icons-free/icons/couch.svg

<!-- Generated by IcoMoon.io -->
<svg version="1.1" xmlns="http://www.w3.org/2000/svg" width="24" height="24" viewBox="0 0 24 24">
<title>couch</title>
<path d="M21 11.345v-4.22c-0.001-1.242-1.008-2.249-2.25-2.25h-13.5c-1.242 0.001-2.249 1.008-2.25 2.25v4.22c-1.303 0.347-2.248 1.515-2.25 2.905v5.25c0.001 0.828 0.672 1.499 1.5 1.5h0.75v2.25h1.5v-2.25h15v2.25h1.5v-2.25h0.75c0.828-0.001 1.499-0.672 1.5-1.5v-5.25c-0.002-1.39-0.947-2.558-2.229-2.9l-0.021-0.005zM5.25 19.5h-3v-5.25c0-0.828 0.672-1.5 1.5-1.5s1.5 0.672 1.5 1.5v0zM17.25 19.5h-10.5v-4.5h10.5zM17.345 13.5h-10.69c-0.282-1.057-1.098-1.873-2.134-2.15l-0.021-0.005v-4.22c0-0.414 0.336-0.75 0.75-0.75h13.5c0.414 0 0.75 0.336 0.75 0.75v4.22c-1.057 0.282-1.873 1.098-2.15 2.134l-0.005 0.021zM21.75 19.5h-3v-5.25c0-0.828 0.672-1.5 1.5-1.5s1.5 0.672 1.5 1.5v0l0.001 5.25z"></path>
</svg>

<svg xmlns="http://www.w3.org/2000/svg" width="24" height="24" viewBox="0 0 24 24"><path d="M21 11.345v-4.22a2.252 2.252 0 00-2.25-2.25H5.25A2.252 2.252 0 003 7.125v4.22A3.012 3.012 0 00.75 14.25v5.25a1.502 1.502 0 001.5 1.5H3v2.25h1.5V21h15v2.25H21V21h.75a1.502 1.502 0 001.5-1.5v-5.25a3.007 3.007 0 00-2.229-2.9L21 11.345zM5.25 19.5h-3v-5.25a1.5 1.5 0 013 0zm12 0H6.75V15h10.5zm.095-6H6.655a3.023 3.023 0 00-2.134-2.15l-.021-.005v-4.22a.75.75 0 01.75-.75h13.5a.75.75 0 01.75.75v4.22a3.023 3.023 0 00-2.15 2.134l-.005.021zm4.405 6h-3v-5.25a1.5 1.5 0 013 0l.001 5.25z"/></svg>
